X: 2
T: 1B. BUFFALO GALS
T: Johnstown Gals
B: Sam Bayard, "Hill Country Tunes" 1944 #1B
S: Played by Mrs Sarah Armstrong, (near) Derry, Westmoreland County, PA, Nov 18 1943.
R: reel
Z: 2010 John Chambers <jc:trillian.mit.edu>
M: C|
L: 1/8
K: G
D2 |\
G3A  B2G2 | BcdB G2Bc | d2cB A2F2 | AGFE D2EF |
G3A  B2G2 | BcdB G2Bc | d2cB A2F2 | G4   G2 || (3def |
g3f  e2d2 | BcdB G2ef | ggf2 e2d2 | e2a2 a2f2 |
g2f2 e2d2 | BcdB G2Bc | d2cB A2F2 | G2   G2 |]

%%sep 2 1 500
%%sep 1 1 500

